svg/outlined/WifiOffOutlinedIcon.svg

<svg width="24" height="24" viewBox="0 0 24 24" xmlns="http://www.w3.org/2000/svg" fill="#cacaca"><path d="M3.21882 4.15632L5.93757 6.31257C7.81257 5.4584 9.8334 5.0209 12.0001 5.00007C13.8751 5.00007 15.6459 5.32299 17.3126 5.96882C18.9584 6.61465 20.4376 7.5209 21.7501 8.68757C22.0626 9.0209 22.0834 9.37507 21.8126 9.75007C21.4792 10.0626 21.1251 10.0834 20.7501 9.81257C19.5834 8.7709 18.2501 7.9584 16.7501 7.37507C15.2709 6.79174 13.6876 6.50007 12.0001 6.50007C10.3334 6.50007 8.76049 6.79174 7.28132 7.37507L11.3438 10.5313C11.5522 10.5105 11.7709 10.5001 12.0001 10.5001C13.2084 10.5001 14.3438 10.7188 15.4063 11.1563C16.4688 11.573 17.4167 12.1667 18.2501 12.9376C18.5626 13.2709 18.5834 13.6251 18.3126 14.0001C17.9584 14.3126 17.6042 14.323 17.2501 14.0313C16.1667 13.0313 14.8751 12.3959 13.3751 12.1251L21.7188 18.6563C22.0522 18.9688 22.0938 19.323 21.8438 19.7188C21.5313 20.0522 21.1772 20.0938 20.7813 19.8438L2.28132 5.34382C1.94799 5.03132 1.90632 4.67715 2.15632 4.28132C2.46882 3.94799 2.82299 3.90632 3.21882 4.15632ZM4.40632 8.90632C4.01049 9.17715 3.62507 9.47924 3.25007 9.81257C2.87507 10.0834 2.5209 10.0626 2.18757 9.75007C1.91674 9.37507 1.93757 9.0209 2.25007 8.68757C2.54174 8.41674 2.85424 8.16674 3.18757 7.93757L4.40632 8.90632ZM9.06257 12.5626C8.2084 12.9167 7.43757 13.4063 6.75007 14.0313C6.3959 14.3022 6.04174 14.2917 5.68757 14.0001C5.41674 13.6251 5.43757 13.2709 5.75007 12.9376C6.35424 12.3751 7.0209 11.9063 7.75007 11.5313L9.06257 12.5626ZM13.7501 17.2501C13.7292 17.9167 13.4376 18.4167 12.8751 18.7501C12.2917 19.0834 11.7084 19.0834 11.1251 18.7501C10.5626 18.4167 10.2709 17.9167 10.2501 17.2501C10.2709 16.5834 10.5626 16.0834 11.1251 15.7501C11.7084 15.4167 12.2917 15.4167 12.8751 15.7501C13.4376 16.0834 13.7292 16.5834 13.7501 17.2501Z"/></svg>

<svg width="24" height="24" fill="#cacaca" xmlns="http://www.w3.org/2000/svg"><path d="M3.219 4.156l2.719 2.157C7.813 5.458 9.833 5.02 12 5c1.875 0 3.646.323 5.313.969a14.718 14.718 0 014.437 2.719c.313.333.333.687.063 1.062-.334.313-.688.333-1.063.063a13.054 13.054 0 00-4-2.438C15.27 6.792 13.687 6.5 12 6.5c-1.667 0-3.24.292-4.719.875l4.063 3.156a8.858 8.858 0 014.063.625 8.976 8.976 0 012.843 1.782c.313.333.333.687.063 1.062-.355.313-.709.323-1.063.031-1.083-1-2.375-1.635-3.875-1.906l8.344 6.531c.333.313.375.667.125 1.063-.313.333-.667.375-1.063.125l-18.5-14.5c-.333-.313-.375-.667-.125-1.063.313-.333.667-.375 1.063-.125zm1.187 4.75c-.396.271-.781.573-1.156.907-.375.27-.73.25-1.062-.063-.271-.375-.25-.73.062-1.062.292-.271.604-.521.938-.75l1.218.968zm4.657 3.657A7.925 7.925 0 006.75 14.03c-.354.271-.708.26-1.062-.03-.271-.376-.25-.73.062-1.063a8.887 8.887 0 012-1.407l1.313 1.032zm4.687 4.687c-.02.667-.313 1.167-.875 1.5-.583.333-1.167.333-1.75 0-.563-.333-.854-.833-.875-1.5.02-.667.313-1.167.875-1.5.583-.333 1.167-.333 1.75 0 .563.333.854.833.875 1.5z"/></svg>
